src/assets/duotone/Airplane.svg

<svg width="24" height="24" viewBox="0 0 24 24"  xmlns="http://www.w3.org/2000/svg">
<path d="M9.96006 14.0401V12.9301C9.96006 12.5001 9.64006 12.2901 9.25006 12.4601L4.24006 14.6201C3.45006 14.9601 2.81006 14.5401 2.81006 13.6901V12.3701C2.81006 11.6901 3.32006 10.9001 3.95006 10.6401L9.65006 8.19006C9.81006 8.11006 9.95006 7.90006 9.95006 7.72006V4.66006C9.95006 3.70006 10.6601 2.55006 11.5101 2.11006C11.8101 1.96006 12.1701 1.96006 12.4701 2.11006C13.3301 2.55006 14.0401 3.69006 14.0401 4.65006V7.71006C14.0401 7.89006 14.1801 8.10006 14.3401 8.18006L15.3801 8.62006L9.96006 14.0401Z" />
<path opacity="0.4" d="M21.1902 12.3701V13.6901C21.1902 14.5401 20.5502 14.9601 19.7602 14.6201L14.7502 12.4601C14.3502 12.3001 14.0402 12.5001 14.0402 12.9301V15.8401C14.0402 16.0701 14.1702 16.4001 14.3402 16.5601L16.6602 18.8901C16.9002 19.1301 17.0102 19.6101 16.9002 19.9401L16.4502 21.3001C16.2502 21.8901 15.5802 22.1601 15.0302 21.8901L12.6502 19.8901C12.2902 19.5801 11.7002 19.5801 11.3402 19.8901L8.96016 21.8901C8.41016 22.1701 7.74016 21.8901 7.56016 21.3001L7.11016 19.9401C7.00016 19.6001 7.11016 19.1301 7.35016 18.8901L9.67016 16.5601C9.83016 16.4001 9.96016 16.0701 9.96016 15.8401V14.0401L15.3802 8.62012L20.0502 10.6301C20.6802 10.9001 21.1902 11.6901 21.1902 12.3701Z" />
</svg>

<?xml version="1.0" encoding="UTF-8"?>
<svg width="24" height="24" viewBox="0 0 24 24" xmlns="http://www.w3.org/2000/svg">
 <path d="m9.9601 14.04v-1.11c0-0.43-0.32-0.64-0.71-0.47l-5.01 2.16c-0.79 0.34-1.43-0.08-1.43-0.93v-1.32c0-0.68 0.51-1.47 1.14-1.73l5.7-2.45c0.16-0.08 0.3-0.29 0.3-0.47v-3.06c0-0.96 0.71004-2.11 1.56-2.55 0.3-0.15 0.66-0.15 0.96 0 0.86 0.44 1.57 1.58 1.57 2.54v3.06c0 0.18 0.14 0.39 0.3 0.47l1.04 0.44-5.42 5.42z"/>
 <path d="m21.19 12.37v1.32c0 0.85-0.64 1.27-1.43 0.93l-5.01-2.16c-0.4-0.16-0.71 0.04-0.71 0.47v2.91c0 0.23 0.13 0.56 0.3 0.72l2.32 2.33c0.24 0.24 0.35 0.72 0.24 1.05l-0.45 1.36c-0.2 0.59-0.87 0.86-1.42 0.59l-2.38-2c-0.36-0.31-0.95-0.31-1.31 0l-2.38 2c-0.55 0.28-1.22 0-1.4-0.59l-0.45-1.36c-0.11-0.34 0-0.81 0.24-1.05l2.32-2.33c0.16-0.16 0.29-0.49 0.29-0.72v-1.8l5.42-5.42 4.67 2.01c0.63 0.27 1.14 1.06 1.14 1.74z" opacity=".4"/>
</svg>
